Newaita-dark/apps/24/typecatcher.svg

<?xml version="1.0" encoding="UTF-8"?>
<svg xmlns="http://www.w3.org/2000/svg" xmlns:xlink="http://www.w3.org/1999/xlink" width="24pt" height="24pt" viewBox="0 0 24 24" version="1.1">
<defs>
<radialGradient id="radial0" gradientUnits="userSpaceOnUse" cx="450.908936" cy="189.579361" fx="450.908936" fy="189.579361" r="21.166656" gradientTransform="matrix(0.000000130628,-0.0585994,-0.105479,-0.0000000761539,37.609564,45.711934)">
<stop offset="0" style="stop-color:rgb(0%,0%,0%);stop-opacity:0.313725;"/>
<stop offset="0.222222" style="stop-color:rgb(0%,0%,0%);stop-opacity:0.27451;"/>
<stop offset="1" style="stop-color:rgb(0%,0%,0%);stop-opacity:0;"/>
</radialGradient>
<radialGradient id="radial1" gradientUnits="userSpaceOnUse" cx="450.908936" cy="189.579361" fx="450.908936" fy="189.579361" r="21.166656" gradientTransform="matrix(-0.000000130628,0.0585994,0.105479,0.0000000761539,-14.787073,-7.630174)">
<stop offset="0" style="stop-color:rgb(0%,0%,0%);stop-opacity:0.313725;"/>
<stop offset="0.222222" style="stop-color:rgb(0%,0%,0%);stop-opacity:0.27451;"/>
<stop offset="1" style="stop-color:rgb(0%,0%,0%);stop-opacity:0;"/>
</radialGradient>
<radialGradient id="radial2" gradientUnits="userSpaceOnUse" cx="450.908936" cy="189.579361" fx="450.908936" fy="189.579361" r="21.166656" gradientTransform="matrix(-0.000000130628,-0.0585994,0.105479,-0.0000000761539,-14.787073,45.711934)">
<stop offset="0" style="stop-color:rgb(0%,0%,0%);stop-opacity:0.313725;"/>
<stop offset="0.222222" style="stop-color:rgb(0%,0%,0%);stop-opacity:0.27451;"/>
<stop offset="1" style="stop-color:rgb(0%,0%,0%);stop-opacity:0;"/>
</radialGradient>
<radialGradient id="radial3" gradientUnits="userSpaceOnUse" cx="450.908936" cy="189.579361" fx="450.908936" fy="189.579361" r="21.166656" gradientTransform="matrix(0.000000130628,0.0585994,-0.105479,0.0000000761539,37.609562,-7.630175)">
<stop offset="0" style="stop-color:rgb(0%,0%,0%);stop-opacity:0.313725;"/>
<stop offset="0.222222" style="stop-color:rgb(0%,0%,0%);stop-opacity:0.27451;"/>
<stop offset="1" style="stop-color:rgb(0%,0%,0%);stop-opacity:0;"/>
</radialGradient>
<linearGradient id="linear0" gradientUnits="userSpaceOnUse" x1="255.323059" y1="233.5" x2="255.323044" y2="254.666656" gradientTransform="matrix(0.01002,0,0,0.0468795,7.612545,8.094525)">
<stop offset="0" style="stop-color:rgb(0%,0%,0%);stop-opacity:0.27451;"/>
<stop offset="1" style="stop-color:rgb(0%,0%,0%);stop-opacity:0;"/>
</linearGradient>
<linearGradient id="linear1" gradientUnits="userSpaceOnUse" x1="254" y1="191.166672" x2="254" y2="-126.333344" gradientTransform="matrix(0.0468795,0,0,0.0468795,0,10.079087)">
<stop offset="0" style="stop-color:rgb(69.019608%,74.509804%,77.254902%);stop-opacity:1;"/>
<stop offset="1" style="stop-color:rgb(81.176471%,84.705882%,86.27451%);stop-opacity:1;"/>
</linearGradient>
<linearGradient id="linear2" gradientUnits="userSpaceOnUse" x1="227.541672" y1="244.083328" x2="227.541672" y2="-168.666656" gradientTransform="matrix(1,0,0,1,0,0)">
<stop offset="0" style="stop-color:rgb(37.647059%,49.019608%,54.509804%);stop-opacity:1;"/>
<stop offset="1" style="stop-color:rgb(47.058824%,56.470588%,61.176471%);stop-opacity:1;"/>
</linearGradient>
</defs>
<g id="surface1">
<path style=" stroke:none;fill-rule:nonzero;fill:url(#radial0);" d="M 17.859375 19.039062 L 19.84375 19.039062 L 19.84375 18.046875 L 17.859375 18.046875 Z M 17.859375 19.039062 "/>
<path style=" stroke:none;fill-rule:nonzero;fill:url(#radial1);" d="M 4.960938 19.039062 L 2.976562 19.039062 L 2.976562 20.03125 L 4.960938 20.03125 Z M 4.960938 19.039062 "/>
<path style=" stroke:none;fill-rule:nonzero;fill:url(#radial2);" d="M 4.960938 19.039062 L 2.976562 19.039062 L 2.976562 18.046875 L 4.960938 18.046875 Z M 4.960938 19.039062 "/>
<path style=" stroke:none;fill-rule:nonzero;fill:url(#radial3);" d="M 17.859375 19.039062 L 19.84375 19.039062 L 19.84375 20.03125 L 17.859375 20.03125 Z M 17.859375 19.039062 "/>
<path style=" stroke:none;fill-rule:nonzero;fill:url(#linear0);" d="M 4.960938 18.792969 L 17.859375 18.792969 L 17.859375 20.03125 L 4.960938 20.03125 Z M 4.960938 18.792969 "/>
<path style=" stroke:none;fill-rule:nonzero;fill:url(#linear1);" d="M 11.402344 4.148438 C 7.554688 4.148438 4.457031 7.421875 4.457031 11.484375 L 4.457031 11.695312 C 4.457031 11.828125 4.457031 11.960938 4.464844 12.09375 C 2.792969 12.199219 1.476562 13.628906 1.476562 15.382812 L 1.476562 15.738281 C 1.476562 17.5625 2.902344 19.03125 4.667969 19.03125 L 7.441406 19.03125 L 7.441406 19.039062 L 17.859375 19.039062 C 20.609375 19.039062 22.824219 16.828125 22.824219 14.078125 C 22.824219 11.371094 20.671875 9.179688 17.980469 9.117188 C 17.050781 6.222656 14.464844 4.148438 11.402344 4.148438 Z M 11.402344 4.148438 "/>
<path style=" stroke:none;fill-rule:nonzero;fill:rgb(98.039216%,98.039216%,98.039216%);fill-opacity:0.588235;" d="M 4.941406 12.09375 C 3.007812 12.09375 1.453125 13.644531 1.453125 15.566406 C 1.453125 15.621094 1.453125 15.671875 1.453125 15.722656 C 1.535156 13.871094 3.0625 12.40625 4.941406 12.40625 C 6.824219 12.40625 8.351562 13.871094 8.429688 15.722656 C 8.433594 15.671875 8.433594 15.621094 8.433594 15.566406 C 8.433594 13.644531 6.878906 12.09375 4.941406 12.09375 Z M 4.941406 12.09375 "/>
<path style=" stroke:none;fill-rule:nonzero;fill:rgb(100%,100%,100%);fill-opacity:0.392157;" d="M 11.402344 4.148438 C 7.554688 4.148438 4.457031 7.421875 4.457031 11.484375 L 4.457031 11.695312 C 4.457031 11.722656 4.457031 11.75 4.457031 11.777344 C 4.5 7.753906 7.582031 4.527344 11.402344 4.527344 C 14.464844 4.527344 17.050781 6.601562 17.980469 9.5 C 20.609375 9.558594 22.722656 11.648438 22.820312 14.269531 C 22.820312 14.203125 22.824219 14.140625 22.824219 14.078125 C 22.824219 11.371094 20.671875 9.179688 17.980469 9.117188 C 17.050781 6.222656 14.464844 4.148438 11.402344 4.148438 Z M 4.457031 12.09375 C 2.789062 12.207031 1.476562 13.628906 1.476562 15.382812 L 1.476562 15.738281 C 1.476562 15.742188 1.480469 15.746094 1.480469 15.75 C 1.484375 14 2.796875 12.582031 4.464844 12.472656 C 4.460938 12.347656 4.457031 12.222656 4.457031 12.09375 Z M 4.457031 12.09375 "/>
<path style="fill-rule:nonzero;fill:url(#linear2);stroke-width:3;stroke-linecap:butt;stroke-linejoin:miter;stroke:rgb(12.941177%,12.941177%,12.941177%);stroke-opacity:1;stroke-miterlimit:4;" d="M 201.064133 -72.930234 C 174.98329 -72.930234 153.735319 -54.432 153.735319 -31.267546 L 153.735319 31.809764 C 153.735319 38.975747 159.48477 44.725197 166.650752 44.725197 C 173.816735 44.725197 179.732836 38.975747 179.732836 31.809764 L 179.732836 14.561411 C 179.732836 8.978611 184.065756 4.645692 189.648556 4.645692 L 212.563035 4.645692 C 218.062509 4.645692 222.56208 9.061936 222.56208 14.561411 L 222.56208 31.809764 C 222.56208 38.975747 228.394856 44.725197 235.477513 44.725197 C 242.643495 44.725197 248.476272 38.975747 248.476272 31.809764 L 248.476272 -31.267546 C 248.476272 -54.432 227.228301 -72.930234 201.064133 -72.930234 Z M 201.064133 -46.932716 C 205.147076 -46.932716 210.813202 -45.932812 215.229447 -43.683027 C 219.645692 -41.516567 222.645405 -38.433528 222.56208 -34.183934 L 222.56208 -25.60142 C 222.56208 -20.01862 218.062509 -15.519049 212.563035 -15.519049 L 189.648556 -15.519049 C 184.065756 -15.519049 179.732836 -20.01862 179.732836 -25.60142 L 179.732836 -34.183934 C 179.732836 -38.433528 182.73255 -41.516567 187.065469 -43.766352 C 191.481714 -45.932812 197.064515 -46.932716 201.064133 -46.932716 Z M 201.064133 -46.932716 " transform="matrix(0.0468795,0,0,0.0468795,0,10.079087)"/>
<path style=" stroke:none;fill-rule:nonzero;fill:rgb(0%,0%,0%);fill-opacity:0.235294;" d="M 4.457031 11.398438 C 4.457031 11.425781 4.457031 11.457031 4.457031 11.484375 L 4.457031 11.695312 C 4.457031 11.703125 4.457031 11.707031 4.457031 11.714844 C 4.457031 11.714844 4.460938 11.714844 4.464844 11.714844 C 4.460938 11.609375 4.457031 11.503906 4.457031 11.398438 Z M 22.820312 13.886719 C 22.71875 16.546875 20.546875 18.660156 17.859375 18.660156 L 7.441406 18.660156 L 7.441406 18.652344 L 4.667969 18.652344 C 2.90625 18.652344 1.484375 17.191406 1.480469 15.371094 C 1.480469 15.375 1.476562 15.378906 1.476562 15.382812 L 1.476562 15.738281 C 1.476562 17.5625 2.902344 19.03125 4.667969 19.03125 L 7.441406 19.03125 L 7.441406 19.039062 L 17.859375 19.039062 C 20.609375 19.039062 22.824219 16.828125 22.824219 14.078125 C 22.824219 14.015625 22.820312 13.949219 22.820312 13.886719 Z M 22.820312 13.886719 "/>
<path style=" stroke:none;fill-rule:nonzero;fill:rgb(98.039216%,98.039216%,98.039216%);fill-opacity:0.588235;" d="M 17.984375 9.117188 C 15.304688 9.117188 13.148438 11.332031 13.148438 14.078125 C 13.148438 14.140625 13.148438 14.203125 13.152344 14.265625 C 13.246094 11.605469 15.367188 9.488281 17.984375 9.488281 C 20.605469 9.488281 22.722656 11.605469 22.820312 14.265625 C 22.820312 14.203125 22.824219 14.140625 22.824219 14.078125 C 22.824219 11.332031 20.664062 9.117188 17.984375 9.117188 Z M 17.984375 9.117188 "/>
<path style=" stroke:none;fill-rule:nonzero;fill:rgb(12.941177%,12.941177%,12.941177%);fill-opacity:1;" d="M 11.402344 4.078125 C 7.511719 4.078125 4.386719 7.382812 4.386719 11.484375 L 4.386719 11.695312 C 4.386719 11.808594 4.390625 11.921875 4.394531 12.03125 C 2.714844 12.175781 1.40625 13.617188 1.40625 15.382812 L 1.40625 15.738281 C 1.40625 17.597656 2.863281 19.101562 4.667969 19.101562 L 7.414062 19.101562 C 7.421875 19.105469 7.433594 19.109375 7.441406 19.109375 L 17.859375 19.109375 C 20.648438 19.109375 22.894531 16.863281 22.894531 14.078125 C 22.894531 11.347656 20.738281 9.140625 18.03125 9.050781 C 17.082031 6.152344 14.480469 4.078125 11.402344 4.078125 Z M 11.402344 4.21875 C 14.433594 4.21875 16.996094 6.269531 17.914062 9.140625 C 17.921875 9.167969 17.949219 9.1875 17.980469 9.1875 C 20.636719 9.25 22.753906 11.40625 22.753906 14.078125 C 22.753906 16.789062 20.570312 18.96875 17.859375 18.96875 L 7.472656 18.96875 C 7.460938 18.964844 7.453125 18.960938 7.441406 18.960938 L 4.667969 18.960938 C 2.941406 18.960938 1.546875 17.527344 1.546875 15.738281 L 1.546875 15.382812 C 1.546875 13.664062 2.835938 12.269531 4.46875 12.164062 C 4.507812 12.160156 4.539062 12.128906 4.535156 12.089844 C 4.527344 11.960938 4.527344 11.828125 4.527344 11.695312 L 4.527344 11.484375 C 4.527344 7.457031 7.59375 4.21875 11.402344 4.21875 Z M 11.402344 4.21875 "/>
</g>
</svg>

<svg xmlns="http://www.w3.org/2000/svg" width="32" height="32" viewBox="0 0 24 24"><defs><radialGradient id="a" gradientUnits="userSpaceOnUse" cx="450.909" cy="189.579" fx="450.909" fy="189.579" r="21.167" gradientTransform="matrix(0 -.0586 -.10548 0 37.61 45.712)"><stop offset="0" stop-opacity=".314"/><stop offset=".222" stop-opacity=".275"/><stop offset="1" stop-opacity="0"/></radialGradient><radialGradient id="b" gradientUnits="userSpaceOnUse" cx="450.909" cy="189.579" fx="450.909" fy="189.579" r="21.167" gradientTransform="matrix(0 .0586 .10548 0 -14.787 -7.63)"><stop offset="0" stop-opacity=".314"/><stop offset=".222" stop-opacity=".275"/><stop offset="1" stop-opacity="0"/></radialGradient><radialGradient id="c" gradientUnits="userSpaceOnUse" cx="450.909" cy="189.579" fx="450.909" fy="189.579" r="21.167" gradientTransform="matrix(0 -.0586 .10548 0 -14.787 45.712)"><stop offset="0" stop-opacity=".314"/><stop offset=".222" stop-opacity=".275"/><stop offset="1" stop-opacity="0"/></radialGradient><radialGradient id="d" gradientUnits="userSpaceOnUse" cx="450.909" cy="189.579" fx="450.909" fy="189.579" r="21.167" gradientTransform="matrix(0 .0586 -.10548 0 37.61 -7.63)"><stop offset="0" stop-opacity=".314"/><stop offset=".222" stop-opacity=".275"/><stop offset="1" stop-opacity="0"/></radialGradient><linearGradient id="e" gradientUnits="userSpaceOnUse" x1="255.323" y1="233.5" x2="255.323" y2="254.667" gradientTransform="matrix(.01002 0 0 .04688 7.613 8.095)"><stop offset="0" stop-opacity=".275"/><stop offset="1" stop-opacity="0"/></linearGradient><linearGradient id="f" gradientUnits="userSpaceOnUse" x1="254" y1="191.167" x2="254" y2="-126.333" gradientTransform="matrix(.04688 0 0 .04688 0 10.08)"><stop offset="0" stop-color="#b0bec5"/><stop offset="1" stop-color="#cfd8dc"/></linearGradient><linearGradient id="g" gradientUnits="userSpaceOnUse" x1="227.542" y1="244.083" x2="227.542" y2="-168.667"><stop offset="0" stop-color="#607d8b"/><stop offset="1" stop-color="#78909c"/></linearGradient></defs><path d="M17.86 19.04h1.984v-.993h-1.985zm0 0" fill="url(#a)"/><path d="M4.96 19.04H2.978v.991H4.96zm0 0" fill="url(#b)"/><path d="M4.96 19.04H2.978v-.993H4.96zm0 0" fill="url(#c)"/><path d="M17.86 19.04h1.984v.991h-1.985zm0 0" fill="url(#d)"/><path d="M4.96 18.793h12.9v1.238H4.96zm0 0" fill="url(#e)"/><path d="M11.402 4.148c-3.847 0-6.945 3.274-6.945 7.336v.211c0 .133 0 .266.008.399-1.672.105-2.988 1.535-2.988 3.289v.355c0 1.825 1.425 3.293 3.191 3.293h2.773v.008H17.86c2.75 0 4.965-2.21 4.965-4.96a4.954 4.954 0 0 0-4.844-4.962c-.93-2.894-3.515-4.969-6.578-4.969zm0 0" fill="url(#f)"/><path d="M4.941 12.094a3.473 3.473 0 0 0-3.488 3.472v.157a3.477 3.477 0 0 1 3.488-3.317 3.472 3.472 0 0 1 3.489 3.317 3.474 3.474 0 0 0-3.488-3.629zm0 0" fill="#fafafa" fill-opacity=".588"/><path d="M11.402 4.148c-3.847 0-6.945 3.274-6.945 7.336v.293c.043-4.023 3.125-7.25 6.945-7.25 3.063 0 5.649 2.075 6.578 4.973a4.948 4.948 0 0 1 4.84 4.77c0-.067.004-.13.004-.192a4.954 4.954 0 0 0-4.844-4.96c-.93-2.895-3.515-4.97-6.578-4.97zm-6.945 7.946c-1.668.113-2.98 1.535-2.98 3.289v.355l.003.012c.004-1.75 1.317-3.168 2.985-3.277-.004-.125-.008-.25-.008-.38zm0 0" fill="#fff" fill-opacity=".392"/><path d="M201.064-72.93c-26.08 0-47.329 18.498-47.329 41.662V31.81c0 7.166 5.75 12.915 12.916 12.915s13.082-5.75 13.082-12.915V14.56c0-5.582 4.333-9.915 9.916-9.915h22.914c5.5 0 10 4.416 10 9.915V31.81c0 7.166 5.832 12.915 12.915 12.915 7.165 0 12.998-5.75 12.998-12.915v-63.078c0-23.164-21.248-41.662-47.412-41.662zm0 25.997c4.083 0 9.75 1 14.165 3.25 4.417 2.166 7.416 5.25 7.333 9.5v8.582c0 5.582-4.5 10.082-9.999 10.082h-22.914c-5.583 0-9.916-4.5-9.916-10.082v-8.583c0-4.25 3-7.333 7.332-9.582 4.417-2.167 10-3.167 14-3.167zm0 0" transform="matrix(.04688 0 0 .04688 0 10.08)" fill="url(#g)" stroke-width="3" stroke="#212121"/><path d="M4.457 11.398v.317h.008c-.004-.106-.008-.211-.008-.317zm18.363 2.489a4.954 4.954 0 0 1-4.96 4.773H7.44v-.008H4.668c-1.762 0-3.184-1.46-3.188-3.28l-.003.01v.356c0 1.825 1.425 3.293 3.191 3.293h2.773v.008H17.86c2.75 0 4.965-2.21 4.965-4.96 0-.063-.004-.13-.004-.192zm0 0" fill-opacity=".235"/><path d="M17.984 9.117c-2.68 0-4.836 2.215-4.836 4.961 0 .063 0 .125.004.188.094-2.66 2.215-4.778 4.832-4.778 2.621 0 4.739 2.117 4.836 4.778 0-.063.004-.125.004-.188 0-2.746-2.16-4.96-4.84-4.96zm0 0" fill="#fafafa" fill-opacity=".588"/><path d="M11.402 4.078c-3.89 0-7.015 3.305-7.015 7.406v.211c0 .114.004.227.008.336-1.68.145-2.989 1.586-2.989 3.352v.355c0 1.86 1.457 3.364 3.262 3.364h2.746c.008.003.02.007.027.007H17.86a5.024 5.024 0 0 0 5.036-5.03A5.022 5.022 0 0 0 18.03 9.05c-.949-2.899-3.55-4.973-6.629-4.973zm0 .14c3.032 0 5.594 2.052 6.512 4.923a.068.068 0 0 0 .066.046 4.88 4.88 0 0 1 4.774 4.891c0 2.711-2.184 4.89-4.895 4.89H7.473c-.012-.003-.02-.007-.032-.007H4.668c-1.727 0-3.121-1.434-3.121-3.223v-.355c0-1.719 1.289-3.113 2.922-3.219.039-.004.07-.035.066-.074-.008-.13-.008-.262-.008-.395v-.21c0-4.028 3.067-7.266 6.875-7.266zm0 0" fill="#212121"/></svg>
